X:137 
T:Matt Peoples'* 1  (reel) 
B:CRE3.121 (gan ainm)
F:file ID: cre.3/137matt_p
R:reel
L:1/8
Q:180
M:C
K:D
"A modal"
A2eA BAdA|(3Bcd gd BAGB|A2eA BAdA|1 B2GA BAAG:|\
[2 B2GB A2||
Ae|aee2 agef|gBB2 g3f|aee2 agec|B2GA BAA2|
aee2 aged|gBB2 g3f|afge f2ed|BAGA BAAG||

%%%

